!!!id: EG079
!!!page: 34-35
!!!COM: Anonymous
!!!LYR: Anonymous
!!!PTL@@FR: Chansons Populaires du Canada
!!!OTL@@FR: Mon, ton, ton, turlutaine
!!!PUB: G. E. Desbarats
!!!YEM:
!!!PDT: 1865
!!!SMA:
!!!OMD:
!!!AGN-Laforte:
!!!AGN-type:
!!!AGN-rime:
**kern
*clefG2
*k[b-]
*F:
*M6/8
*
*
8g
=1
8.dL
16eJ
8f
4.g
=2
4.b-/
4a
8a
=3
*M3/8
4g
8g
!!LO:PB:g=original
=4
*M6/8
8.dL
16eJ
8f
4.g
=5
4.b-/
4a
8a
=6
[4.g
8g]
8r
8g
=7
4g
8a
4b-
8b-
!!LO:PB:g=original
=8
8b-q
4dd
8b-
4.a
=9
4a
8a
8.a
16a
8g
=10
4a
8a
(4g
8f)
!!LO:PB:g=original
=11
4g
8a
8.a
16b-/
8g
=12
(4g
8f
4g)
==||
8r
==||
*
*
==|
*-
